X:1
T:Title
%%score { ( 1 2 5 ) | ( 3 4 ) }
L:1/8
Q:1/4=90
M:6/8
K:D
V:1 bass nm="Grand Piano"
V:2 bass 
V:5 bass 
V:3 bass 
V:4 bass 
V:1
 F3 A3 | F3 A3 | BAF DEF | ^GA[DB] CD[E=G] | .[A,DF]3 [CA]3 | z3 A3[K:bass] | dAF EF[^A,DG] | %7
w: I.~H.~Meredith *|||||||
 [CF]2[K:bass] [G,CE] [F,D]3 | EF^G ABc | z3 B3 | cB^G F2 G | F3 z3[K:bass] | E[K:treble]F^G ABc | %13
w: ||||||
 z3 B3 | cB^G F2 E | z3 G3 | F3[K:bass] A3 | F3 A3 | BAF DEF | ^GA[DB] CD[E=G] | .[A,DF]3 [CA]3 | %21
w: ||||||||
 z3 A3[K:bass] | dAF EF[^A,DG] |[M:7/4] [CF]2[K:bass] [G,CE] [F,D]3 z2 z2 z4 |] %24
w: |||
V:2
 z2 A,, z2 A,, | z2 A,, z2 A,, | x6 | z3 .[A,A]3 | x6 | .[A,DF]3 z2[K:bass] A,, | x6 | %7
 x2[K:bass] x4 | x6 | d^Gc z2 E, | x6 | =C2 C E2[K:bass] C, | x[K:treble] x5 | d^Ac z2 E, | x6 | %15
 [A,-A]3 A,3 | z2[K:bass] A,, z2 A,, | z2 A,, z2 A,, | x6 | z3 .[A,A]3 | x6 | %21
 .[A,DF]3 z2[K:bass] A,, | x6 |[M:7/4] x2[K:bass] x12 |] %24
V:3
 .[D,A,D]3 .[E,G,C]3 | .[D,A,D]3 .[E,G,C]3 | [D,F,D]2 [D,A,D] A,-[E,A,C][D,A,D] | %3
 D-[F,D]G, A,,B,,C, | D,2 A,, [E,G,]2 A,, | D,2 A,, .[E,G,C]3 | [F,A,D]2 [F,B,D] [B,D]-[F,B,D]E, | %7
 A,2 A,, D,3 | A,,2 E, [A,C]2 E, | B,,2 E, .[^G,D]3 | E,,2 E, [^G,D]2 E, | %11
 A,,2- [A,,-^D,] [A,,E,C]3 | A,,2 E, [A,C]2 E, | B,,2 E, .[^G,D]3 | %14
 E,,2 [E,B,D] [E,A,D]2 [E,^G,D] | A,,2 B,, C,2 A,, | .[D,A,D]3 .[E,G,C]3 | .[D,A,D]3 .[E,G,C]3 | %18
 [D,F,D]2 [D,A,D] A,-[E,A,C][D,A,D] | D-[F,D]G, A,,B,,C, | D,2 A,, [E,G,]2 A,, | %21
 D,2 A,, .[E,G,C]3 | [F,A,D]2 [F,B,D] [B,D]-[F,B,D]E, |[M:7/4] A,2 A,, D,3 z2 z2 z4 |] %24
V:4
 x6 | x6 | z3 .F,3 | E,3 z3 | x6 | x6 | z3 .G,3 | x6 | x6 | x6 | x6 | .^D,3 z3 | x6 | x6 | x6 | %15
 x6 | x6 | x6 | z3 .F,3 | E,3 z3 | x6 | x6 | z3 .G,3 |[M:7/4] x14 |] %24
V:5
 x6 | x6 | x6 | x6 | x6 | x5[K:bass] x | x6 | x2[K:bass] x4 | x6 | x6 | x6 | x5[K:bass] x | %12
 x[K:treble] x5 | x6 | x6 | C2 D E2 C | x2[K:bass] x4 | x6 | x6 | x6 | x6 | x5[K:bass] x | x6 | %23
[M:7/4] x2[K:bass] x12 |] %24

